data/cards/self-care/shower.svg

<svg xmlns="http://www.w3.org/2000/svg" width="512" height="512" fill="none"><path fill="#CDE9FA" d="m253.849 159.4-61.754-61.754C157.33 62.88 108.078 51.548 63.863 63.633v68.977c26.125-15.652 60.448-12.224 82.971 10.298l61.754 61.754c12.497 12.499 32.763 12.499 45.261 0 12.498-12.499 12.498-32.763 0-45.262Z"/><path fill="#A2DDFD" d="M117.534 125.616V60.307c-17.873-2.558-36.166-1.459-53.671 3.326v68.978c16.317-9.776 35.831-12.108 53.671-6.995Z"/><path fill="#8EAFE2" d="M46.139 180.939H17.118C7.664 180.939 0 173.275 0 163.82V28.808C0 19.354 7.664 11.69 17.118 11.69h29.021c22.362 0 40.49 18.128 40.49 40.49v88.27c0 22.361-18.128 40.489-40.49 40.489Z"/><path fill="#4E5660" d="M231.219 237.498c30.634 0 55.467-24.833 55.467-55.467 0-30.633-24.833-55.467-55.467-55.467s-55.467 24.834-55.467 55.467c0 30.634 24.833 55.467 55.467 55.467Z"/><path fill="#8EAFE2" d="M238.503 321.454c17.1-3.577 60.127-33.832 79.217-52.921 19.09-19.09 49.344-62.117 52.921-79.217l-68.865-47.96c-15.22-10.6-35.848-8.769-48.963 4.346l-57.925 57.925c-13.115 13.115-14.946 33.743-4.346 48.963l47.961 68.864Z"/><path fill="#F6EE86" d="M210.025 327.412c-3.28-15.682 6.734-31.055 22.384-34.407 9.482-2.571 46.336-26.643 64.739-45.046 18.402-18.403 42.474-55.255 45.045-64.737 3.349-15.65 18.72-25.67 34.406-22.384 15.728 3.29 25.812 18.707 22.522 34.435-5.649 27.004-43.145 76.151-60.827 93.833-17.682 17.683-66.829 55.178-93.832 60.827-15.738 3.295-31.148-6.804-34.437-22.521Z"/><path fill="#F2D98D" d="M290.96 253.759c-19.478 17.305-50.04 36.939-58.552 39.247-15.65 3.352-25.664 18.725-22.384 34.407 3.289 15.717 18.7 25.816 34.437 22.521 18.139-3.795 46.258-21.956 68.132-38.832-19.321-8.581-27.704-38.877-21.633-57.343Z"/><path fill="#CDE9FA" d="M325.105 365.85c26.473 4.636 44.383 3.399 61.622 19.226 15.941 14.635 17.665 39.773 2.802 55.502-14.937 15.808-39.867 16.075-55.141.801-17.872-17.872-16.349-36.135-21.166-63.643-1.228-7.022 4.862-13.116 11.883-11.886Zm112.258-127.33c26.473 4.636 44.383 3.399 61.622 19.226 15.941 14.635 17.665 39.773 2.802 55.502-14.937 15.808-39.867 16.075-55.141.801-17.872-17.872-16.349-36.135-21.166-63.643-1.228-7.022 4.862-13.116 11.883-11.886Z"/><path fill="#D1C4E9" d="M470.321 435.605c20.609 0 37.316-16.707 37.316-37.316s-16.707-37.316-37.316-37.316-37.316 16.707-37.316 37.316 16.707 37.316 37.316 37.316ZM216.216 395.75c-8.022-10.05-20.738-16.187-34.833-15.081-20.352 1.596-36.492 18.581-37.117 38.986-.66 21.544 15.384 38.909 35.367 41.386 7.925.982 14.717 5.874 18.307 13.006 8.589 17.062 27.121 28.257 47.991 25.966 24.328-2.67 42.355-23.056 42.279-47.53-.088-28.617-24.763-49.508-51.343-47.412-7.997.631-15.646-3.051-20.651-9.321Z"/><path fill="#B0ADE2" d="M197.94 474.048c8.589 17.062 27.121 28.257 47.991 25.966a47.768 47.768 0 0 0 13.125-3.361c-50.979-16.124-68.323-81.023-60.471-113.633-5.301-1.951-11.122-2.828-17.203-2.352-20.352 1.596-36.492 18.581-37.117 38.986-.66 21.544 15.383 38.909 35.367 41.386 7.925.985 14.718 5.876 18.308 13.008Zm299.84-50.497c-40.158.019-50.218-45.785-38.763-60.83-15.082 4.789-26.012 18.9-26.012 35.568 0 20.609 16.707 37.316 37.316 37.316 10.864 0 20.639-4.645 27.459-12.054Z"/></svg>

<svg width="512" height="512" viewBox="0 0 512 512" fill="none" xmlns="http://www.w3.org/2000/svg">
<path d="M253.849 159.4L192.095 97.6464C157.33 62.8804 108.078 51.5484 63.863 63.6334V132.61C89.988 116.958 124.311 120.386 146.834 142.908L208.588 204.662C221.085 217.161 241.351 217.161 253.849 204.662C266.347 192.163 266.347 171.899 253.849 159.4Z" fill="#CDE9FA"/>
<path d="M117.534 125.616V60.3075C99.661 57.7495 81.368 58.8485 63.863 63.6335V132.611C80.18 122.835 99.694 120.503 117.534 125.616Z" fill="#A2DDFD"/>
<path d="M46.139 180.939H17.118C7.664 180.939 0 173.275 0 163.82V28.8084C0 19.3544 7.664 11.6904 17.118 11.6904H46.139C68.501 11.6904 86.629 29.8184 86.629 52.1804V140.45C86.629 162.811 68.501 180.939 46.139 180.939Z" fill="#8EAFE2"/>
<path d="M231.219 237.498C261.853 237.498 286.686 212.665 286.686 182.031C286.686 151.398 261.853 126.564 231.219 126.564C200.585 126.564 175.752 151.398 175.752 182.031C175.752 212.665 200.585 237.498 231.219 237.498Z" fill="#4E5660"/>
<path d="M238.503 321.454C255.603 317.877 298.63 287.622 317.72 268.533C336.81 249.443 367.064 206.416 370.641 189.316L301.776 141.356C286.556 130.756 265.928 132.587 252.813 145.702L194.888 203.627C181.773 216.742 179.942 237.37 190.542 252.59L238.503 321.454Z" fill="#8EAFE2"/>
<path d="M210.025 327.412C206.745 311.73 216.759 296.357 232.409 293.005C241.891 290.434 278.745 266.362 297.148 247.959C315.55 229.556 339.622 192.704 342.193 183.222C345.542 167.572 360.913 157.552 376.599 160.838C392.327 164.128 402.411 179.545 399.121 195.273C393.472 222.277 355.976 271.424 338.294 289.106C320.612 306.789 271.465 344.284 244.462 349.933C228.724 353.228 213.314 343.129 210.025 327.412Z" fill="#F6EE86"/>
<path d="M290.96 253.759C271.482 271.064 240.92 290.698 232.408 293.006C216.758 296.358 206.744 311.731 210.024 327.413C213.313 343.13 228.724 353.229 244.461 349.934C262.6 346.139 290.719 327.978 312.593 311.102C293.272 302.521 284.889 272.225 290.96 253.759Z" fill="#F2D98D"/>
<path d="M325.105 365.85C351.578 370.486 369.488 369.249 386.727 385.076C402.668 399.711 404.392 424.849 389.529 440.578C374.592 456.386 349.662 456.653 334.388 441.379C316.516 423.507 318.039 405.244 313.222 377.736C311.994 370.714 318.084 364.62 325.105 365.85Z" fill="#CDE9FA"/>
<path d="M437.363 238.52C463.836 243.156 481.746 241.919 498.985 257.746C514.926 272.381 516.65 297.519 501.787 313.248C486.85 329.056 461.92 329.323 446.646 314.049C428.774 296.177 430.297 277.914 425.48 250.406C424.252 243.384 430.342 237.29 437.363 238.52Z" fill="#CDE9FA"/>
<path d="M470.321 435.605C490.93 435.605 507.637 418.898 507.637 398.289C507.637 377.68 490.93 360.973 470.321 360.973C449.712 360.973 433.005 377.68 433.005 398.289C433.005 418.898 449.712 435.605 470.321 435.605Z" fill="#D1C4E9"/>
<path d="M216.216 395.75C208.194 385.7 195.478 379.563 181.383 380.669C161.031 382.265 144.891 399.25 144.266 419.655C143.606 441.199 159.65 458.564 179.633 461.041C187.558 462.023 194.35 466.915 197.94 474.047C206.529 491.109 225.061 502.304 245.931 500.013C270.259 497.343 288.286 476.957 288.21 452.483C288.122 423.866 263.447 402.975 236.867 405.071C228.87 405.702 221.221 402.02 216.216 395.75Z" fill="#D1C4E9"/>
<path d="M197.94 474.048C206.529 491.11 225.061 502.305 245.931 500.014C250.562 499.506 254.963 498.352 259.056 496.653C208.077 480.529 190.733 415.63 198.585 383.02C193.284 381.069 187.463 380.192 181.382 380.668C161.03 382.264 144.89 399.249 144.265 419.654C143.605 441.198 159.648 458.563 179.632 461.04C187.557 462.025 194.35 466.916 197.94 474.048Z" fill="#B0ADE2"/>
<path d="M497.78 423.551C457.622 423.57 447.562 377.766 459.017 362.721C443.935 367.51 433.005 381.621 433.005 398.289C433.005 418.898 449.712 435.605 470.321 435.605C481.185 435.605 490.96 430.96 497.78 423.551Z" fill="#B0ADE2"/>
</svg>
